Newaita-dark/.LP/22/weather-cloudy.svg

<svg xmlns="http://www.w3.org/2000/svg" xmlns:xlink="http://www.w3.org/1999/xlink" width="22px" height="22px" viewBox="0 0 22 22" version="1.1">
<defs>
<linearGradient id="linear0" gradientUnits="userSpaceOnUse" x1="254" y1="233.5" x2="254" y2="254.667007" gradientTransform="matrix(0.0429688,0,0,0.0429688,0,9.01175)">
<stop offset="0" style="stop-color:rgb(0%,0%,0%);stop-opacity:0.275;"/>
<stop offset="1" style="stop-color:rgb(0%,0%,0%);stop-opacity:0;"/>
</linearGradient>
<radialGradient id="radial0" gradientUnits="userSpaceOnUse" cx="450.908997" cy="189.578995" fx="450.908997" fy="189.578995" r="21.167" gradientTransform="matrix(0,-0.0537212,-0.09669,0,33.793375,43.494)">
<stop offset="0" style="stop-color:rgb(0%,0%,0%);stop-opacity:0.314;"/>
<stop offset="0.222" style="stop-color:rgb(0%,0%,0%);stop-opacity:0.275;"/>
<stop offset="1" style="stop-color:rgb(0%,0%,0%);stop-opacity:0;"/>
</radialGradient>
<radialGradient id="radial1" gradientUnits="userSpaceOnUse" cx="450.908997" cy="189.578995" fx="450.908997" fy="189.578995" r="21.167" gradientTransform="matrix(0,0.0537212,0.09669,0,-13.55475,-5.40375)">
<stop offset="0" style="stop-color:rgb(0%,0%,0%);stop-opacity:0.314;"/>
<stop offset="0.222" style="stop-color:rgb(0%,0%,0%);stop-opacity:0.275;"/>
<stop offset="1" style="stop-color:rgb(0%,0%,0%);stop-opacity:0;"/>
</radialGradient>
<radialGradient id="radial2" gradientUnits="userSpaceOnUse" cx="450.908997" cy="189.578995" fx="450.908997" fy="189.578995" r="21.167" gradientTransform="matrix(0,-0.0537212,0.09669,0,-13.55475,43.494)">
<stop offset="0" style="stop-color:rgb(0%,0%,0%);stop-opacity:0.314;"/>
<stop offset="0.222" style="stop-color:rgb(0%,0%,0%);stop-opacity:0.275;"/>
<stop offset="1" style="stop-color:rgb(0%,0%,0%);stop-opacity:0;"/>
</radialGradient>
<radialGradient id="radial3" gradientUnits="userSpaceOnUse" cx="450.908997" cy="189.578995" fx="450.908997" fy="189.578995" r="21.167" gradientTransform="matrix(0,0.0537212,-0.09669,0,33.793375,-5.40375)">
<stop offset="0" style="stop-color:rgb(0%,0%,0%);stop-opacity:0.314;"/>
<stop offset="0.222" style="stop-color:rgb(0%,0%,0%);stop-opacity:0.275;"/>
<stop offset="1" style="stop-color:rgb(0%,0%,0%);stop-opacity:0;"/>
</radialGradient>
<linearGradient id="linear1" gradientUnits="userSpaceOnUse" x1="211.667007" y1="-20.5" x2="211.667007" y2="-168.667007" gradientTransform="matrix(0.0429688,0,0,0.0429688,-0.10725,9.20975)">
<stop offset="0" style="stop-color:rgb(39.215687%,70.980394%,96.470588%);stop-opacity:1;"/>
<stop offset="1" style="stop-color:rgb(56.470591%,79.215688%,97.647059%);stop-opacity:1;"/>
</linearGradient>
<linearGradient id="linear2" gradientUnits="userSpaceOnUse" x1="960" y1="1695.118042" x2="960" y2="815.117981" gradientTransform="matrix(0.0113699,0.00017504,-0.00017504,0.0113699,0,0)">
<stop offset="0" style="stop-color:rgb(39.215687%,70.980394%,96.470588%);stop-opacity:1;"/>
<stop offset="1" style="stop-color:rgb(56.470591%,79.215688%,97.647059%);stop-opacity:1;"/>
</linearGradient>
</defs>
<g id="surface1">
<path style=" stroke:none;fill-rule:nonzero;fill:url(#linear0);" d="M 4.550781 19.046875 L 15.6875 19.046875 L 15.6875 19.953125 L 4.550781 19.953125 Z M 4.550781 19.046875 "/>
<path style=" stroke:none;fill-rule:nonzero;fill:url(#radial0);" d="M 15.6875 19.046875 L 17.507812 19.046875 L 17.507812 18.136719 L 15.6875 18.136719 Z M 15.6875 19.046875 "/>
<path style=" stroke:none;fill-rule:nonzero;fill:url(#radial1);" d="M 4.550781 19.046875 L 2.726562 19.046875 L 2.726562 19.953125 L 4.550781 19.953125 Z M 4.550781 19.046875 "/>
<path style=" stroke:none;fill-rule:nonzero;fill:url(#radial2);" d="M 4.550781 19.046875 L 2.726562 19.046875 L 2.726562 18.136719 L 4.550781 18.136719 Z M 4.550781 19.046875 "/>
<path style=" stroke:none;fill-rule:nonzero;fill:url(#radial3);" d="M 15.6875 19.046875 L 17.507812 19.046875 L 17.507812 19.953125 L 15.6875 19.953125 Z M 15.6875 19.046875 "/>
<path style=" stroke:none;fill-rule:nonzero;fill:url(#linear1);" d="M 11.960938 1.960938 C 10.859375 1.960938 9.894531 2.515625 9.324219 3.355469 C 8.820312 3.039062 8.234375 2.867188 7.636719 2.875 C 6.230469 2.875 5.058594 3.769531 4.757812 4.980469 C 4.199219 4.613281 3.484375 4.585938 2.898438 4.910156 C 2.316406 5.226562 1.949219 5.84375 1.953125 6.507812 C 1.953125 7.519531 2.765625 8.332031 3.769531 8.332031 L 11.960938 8.332031 C 12.804688 8.332031 13.617188 7.996094 14.210938 7.402344 C 14.8125 6.800781 15.148438 5.988281 15.140625 5.144531 C 15.148438 4.300781 14.8125 3.492188 14.210938 2.894531 C 13.617188 2.292969 12.804688 1.960938 11.960938 1.960938 Z M 5.382812 7.363281 C 5.398438 7.386719 5.414062 7.402344 5.429688 7.417969 L 5.347656 7.417969 C 5.359375 7.402344 5.371094 7.378906 5.382812 7.363281 Z M 5.382812 7.363281 "/>
<path style=" stroke:none;fill-rule:nonzero;fill:url(#linear2);" d="M 15.007812 9.265625 C 13.078125 9.257812 11.316406 10.371094 10.488281 12.117188 C 10.183594 12.035156 9.867188 12 9.550781 12 C 8.039062 11.992188 6.6875 12.929688 6.148438 14.335938 C 5.324219 13.726562 4.222656 13.640625 3.308594 14.109375 C 2.394531 14.578125 1.820312 15.515625 1.820312 16.542969 C 1.820312 18.058594 3.035156 19.273438 4.550781 19.273438 C 4.660156 19.273438 4.769531 19.265625 4.875 19.253906 C 4.921875 19.265625 4.960938 19.273438 5 19.273438 L 15.007812 19.273438 C 16.332031 19.277344 17.613281 18.75 18.550781 17.8125 C 19.484375 16.871094 20.011719 15.597656 20.011719 14.269531 C 20.011719 12.945312 19.484375 11.671875 18.550781 10.730469 C 17.613281 9.792969 16.339844 9.265625 15.007812 9.265625 Z M 15.007812 9.265625 "/>
<path style=" stroke:none;fill-rule:nonzero;fill:rgb(100%,100%,100%);fill-opacity:0.392;" d="M 15.007812 9.265625 C 13.078125 9.257812 11.316406 10.371094 10.488281 12.117188 C 10.183594 12.035156 9.867188 12 9.550781 12 C 8.039062 11.992188 6.6875 12.929688 6.148438 14.335938 C 5.324219 13.726562 4.222656 13.640625 3.308594 14.109375 C 2.394531 14.578125 1.820312 15.515625 1.820312 16.542969 L 1.820312 16.65625 C 1.878906 15.195312 3.089844 14.039062 4.550781 14.046875 C 5.144531 14.046875 5.699219 14.234375 6.148438 14.5625 C 6.6875 13.148438 8.039062 12.21875 9.550781 12.226562 C 9.867188 12.226562 10.183594 12.265625 10.488281 12.34375 C 11.316406 10.601562 13.078125 9.492188 15.007812 9.496094 C 17.730469 9.492188 19.953125 11.664062 20.007812 14.382812 C 20.011719 14.347656 20.011719 14.308594 20.011719 14.269531 C 20.019531 12.945312 19.492188 11.671875 18.550781 10.730469 C 17.613281 9.792969 16.339844 9.265625 15.007812 9.265625 Z M 15.007812 9.265625 "/>
<path style=" stroke:none;fill-rule:nonzero;fill:rgb(0%,0%,0%);fill-opacity:0.235;" d="M 20.007812 14.167969 C 19.960938 16.890625 17.730469 19.074219 15.007812 19.066406 L 5 19.066406 C 4.957031 19.066406 4.921875 19.054688 4.875 19.046875 C 4.769531 19.054688 4.660156 19.066406 4.550781 19.066406 C 3.082031 19.066406 1.875 17.90625 1.820312 16.441406 L 1.820312 16.542969 C 1.820312 18.058594 3.035156 19.273438 4.550781 19.273438 C 4.660156 19.273438 4.769531 19.265625 4.875 19.253906 C 4.921875 19.265625 4.957031 19.273438 5 19.273438 L 15.007812 19.273438 C 16.332031 19.277344 17.605469 18.75 18.546875 17.8125 C 19.484375 16.871094 20.011719 15.597656 20.011719 14.269531 C 20.011719 14.234375 20.011719 14.199219 20.007812 14.167969 Z M 20.007812 14.167969 "/>
<path style="fill:none;stroke-width:0.0937735;stroke-linecap:round;stroke-linejoin:miter;stroke:rgb(12.941177%,12.941177%,12.941177%);stroke-opacity:1;stroke-miterlimit:4;" d="M 10.914773 6.738636 C 9.511364 6.738636 8.230114 7.542614 7.627841 8.8125 C 7.40625 8.752841 7.176136 8.727273 6.946023 8.727273 C 5.846591 8.721591 4.863636 9.403409 4.471591 10.426136 C 3.872159 9.982955 3.071023 9.920455 2.40625 10.261364 C 1.741477 10.602273 1.323864 11.284091 1.323864 12.03125 C 1.323864 13.133523 2.207386 14.017045 3.309659 14.017045 C 3.389205 14.017045 3.46875 14.011364 3.545455 14.002841 C 3.579545 14.011364 3.607955 14.017045 3.636364 14.017045 L 10.914773 14.017045 C 11.877841 14.019886 12.809659 13.636364 13.491477 12.954545 C 14.170455 12.269886 14.553977 11.34375 14.553977 10.377841 C 14.553977 9.414773 14.170455 8.488636 13.491477 7.803977 C 12.809659 7.122159 11.883523 6.738636 10.914773 6.738636 Z M 10.914773 6.738636 " transform="matrix(1.375,0,0,1.375,0,0)"/>
<path style=" stroke:none;fill-rule:nonzero;fill:rgb(100%,100%,100%);fill-opacity:0.392;" d="M 12.070312 1.960938 C 10.96875 1.960938 10 2.515625 9.429688 3.355469 C 8.925781 3.039062 8.339844 2.867188 7.746094 2.875 C 6.335938 2.875 5.167969 3.769531 4.867188 4.980469 C 4.308594 4.613281 3.59375 4.585938 3.007812 4.910156 C 2.421875 5.226562 2.058594 5.84375 2.0625 6.507812 L 2.0625 6.621094 C 2.125 5.667969 2.921875 4.921875 3.878906 4.921875 C 4.242188 4.921875 4.582031 5.023438 4.867188 5.203125 C 5.167969 3.996094 6.335938 3.097656 7.746094 3.097656 C 8.375 3.097656 8.953125 3.277344 9.429688 3.582031 C 10.023438 2.707031 11.015625 2.1875 12.070312 2.191406 C 13.792969 2.191406 15.1875 3.550781 15.25 5.257812 L 15.25 5.144531 C 15.253906 4.300781 14.914062 3.492188 14.320312 2.894531 C 13.722656 2.292969 12.914062 1.960938 12.070312 1.960938 Z M 5.488281 7.59375 C 5.476562 7.609375 5.46875 7.632812 5.457031 7.648438 L 5.539062 7.648438 C 5.523438 7.625 5.503906 7.609375 5.488281 7.59375 Z M 5.488281 7.59375 "/>
<path style=" stroke:none;fill-rule:nonzero;fill:rgb(0%,0%,0%);fill-opacity:0.235;" d="M 15.140625 5.046875 C 15.09375 6.765625 13.679688 8.136719 11.960938 8.132812 L 3.769531 8.132812 C 2.804688 8.132812 2.007812 7.378906 1.953125 6.414062 L 1.953125 6.507812 C 1.953125 7.519531 2.765625 8.332031 3.769531 8.332031 L 11.960938 8.332031 C 12.804688 8.332031 13.617188 7.996094 14.210938 7.402344 C 14.8125 6.800781 15.148438 5.988281 15.140625 5.144531 Z M 5.382812 7.164062 C 5.371094 7.179688 5.359375 7.203125 5.347656 7.21875 L 5.429688 7.21875 C 5.414062 7.203125 5.398438 7.1875 5.382812 7.164062 Z M 5.382812 7.164062 "/>
<path style="fill:none;stroke-width:0.09375;stroke-linecap:square;stroke-linejoin:round;stroke:rgb(12.941177%,12.941177%,12.941177%);stroke-opacity:1;stroke-miterlimit:4;" d="M 8.698864 1.426136 C 7.897727 1.426136 7.196023 1.829545 6.78125 2.440341 C 6.414773 2.210227 5.988636 2.085227 5.553977 2.090909 C 4.53125 2.090909 3.678977 2.741477 3.460227 3.622159 C 3.053977 3.355114 2.534091 3.335227 2.107955 3.571023 C 1.684659 3.801136 1.417614 4.25 1.420455 4.732955 C 1.420455 5.46875 2.011364 6.059659 2.741477 6.059659 L 8.698864 6.059659 C 9.3125 6.059659 9.903409 5.815341 10.335227 5.383523 C 10.772727 4.946023 11.017045 4.355114 11.011364 3.741477 C 11.017045 3.127841 10.772727 2.539773 10.335227 2.105114 C 9.903409 1.667614 9.3125 1.426136 8.698864 1.426136 Z M 3.914773 5.355114 C 3.926136 5.372159 3.9375 5.383523 3.948864 5.394886 L 3.889205 5.394886 C 3.897727 5.383523 3.90625 5.366477 3.914773 5.355114 Z M 3.914773 5.355114 " transform="matrix(1.375,0,0,1.375,0,0)"/>
</g>
</svg>

<svg xmlns="http://www.w3.org/2000/svg" width="22" height="22"><defs><linearGradient id="a" gradientUnits="userSpaceOnUse" x1="254" y1="233.5" x2="254" y2="254.667" gradientTransform="matrix(.04297 0 0 .04297 0 9.012)"><stop offset="0" stop-opacity=".275"/><stop offset="1" stop-opacity="0"/></linearGradient><radialGradient id="b" gradientUnits="userSpaceOnUse" cx="450.909" cy="189.579" fx="450.909" fy="189.579" r="21.167" gradientTransform="matrix(0 -.05372 -.09669 0 33.793 43.494)"><stop offset="0" stop-opacity=".314"/><stop offset=".222" stop-opacity=".275"/><stop offset="1" stop-opacity="0"/></radialGradient><radialGradient id="c" gradientUnits="userSpaceOnUse" cx="450.909" cy="189.579" fx="450.909" fy="189.579" r="21.167" gradientTransform="matrix(0 .05372 .09669 0 -13.555 -5.403)"><stop offset="0" stop-opacity=".314"/><stop offset=".222" stop-opacity=".275"/><stop offset="1" stop-opacity="0"/></radialGradient><radialGradient id="d" gradientUnits="userSpaceOnUse" cx="450.909" cy="189.579" fx="450.909" fy="189.579" r="21.167" gradientTransform="matrix(0 -.05372 .09669 0 -13.555 43.494)"><stop offset="0" stop-opacity=".314"/><stop offset=".222" stop-opacity=".275"/><stop offset="1" stop-opacity="0"/></radialGradient><radialGradient id="e" gradientUnits="userSpaceOnUse" cx="450.909" cy="189.579" fx="450.909" fy="189.579" r="21.167" gradientTransform="matrix(0 .05372 -.09669 0 33.793 -5.403)"><stop offset="0" stop-opacity=".314"/><stop offset=".222" stop-opacity=".275"/><stop offset="1" stop-opacity="0"/></radialGradient><linearGradient id="f" gradientUnits="userSpaceOnUse" x1="211.667" y1="-20.5" x2="211.667" y2="-168.667" gradientTransform="matrix(.04297 0 0 .04297 -.107 9.21)"><stop offset="0" stop-color="#64b5f6"/><stop offset="1" stop-color="#90caf9"/></linearGradient><linearGradient id="g" gradientUnits="userSpaceOnUse" x1="960" y1="1695.118" x2="960" y2="815.118" gradientTransform="rotate(.24) scale(.01137)"><stop offset="0" stop-color="#64b5f6"/><stop offset="1" stop-color="#90caf9"/></linearGradient></defs><path d="M4.547 19.047H15.69v.91H4.547zm0 0" fill="url(#a)"/><path d="M15.691 19.047h1.817v-.91H15.69zm0 0" fill="url(#b)"/><path d="M4.547 19.047H2.73v.91h1.817zm0 0" fill="url(#c)"/><path d="M4.547 19.047H2.73v-.91h1.817zm0 0" fill="url(#d)"/><path d="M15.691 19.047h1.817v.91H15.69zm0 0" fill="url(#e)"/><path d="M11.96 1.96c-1.1 0-2.065.552-2.636 1.395a3.125 3.125 0 0 0-1.683-.484c-1.407 0-2.579.899-2.883 2.11a1.797 1.797 0 0 0-.985-.29c-1.007 0-1.82.813-1.82 1.82 0 1.009.813 1.817 1.82 1.817h8.188a3.177 3.177 0 0 0 3.184-3.183A3.18 3.18 0 0 0 11.96 1.96zM5.38 7.364c.02.02.035.04.055.055h-.082c.007-.016.02-.035.027-.055zm0 0" fill="url(#f)"/><path d="M15.008 9.27c-2 0-3.719 1.16-4.52 2.847a3.715 3.715 0 0 0-.937-.12 3.63 3.63 0 0 0-3.399 2.335 2.733 2.733 0 0 0-1.605-.516 2.72 2.72 0 0 0-2.727 2.727 2.722 2.722 0 0 0 3.059 2.71.44.44 0 0 0 .125.02h10.004a4.991 4.991 0 0 0 5.004-5.003c0-2.77-2.23-5-5.004-5zm0 0" fill="url(#g)"/><path d="M15.008 9.27c-2 0-3.719 1.16-4.52 2.847a3.715 3.715 0 0 0-.937-.12 3.63 3.63 0 0 0-3.399 2.335 2.733 2.733 0 0 0-1.605-.516 2.72 2.72 0 0 0-2.727 2.727v.117a2.726 2.726 0 0 1 2.727-2.617 2.71 2.71 0 0 1 1.605.52 3.628 3.628 0 0 1 3.399-2.34c.324 0 .636.043.937.12a4.988 4.988 0 0 1 4.52-2.847 4.987 4.987 0 0 1 5 4.887c.004-.035.004-.074.004-.113 0-2.77-2.23-5-5.004-5zm0 0" fill="#fff" fill-opacity=".392"/><path d="M20.012 14.168a4.992 4.992 0 0 1-5.004 4.898H5.004a.44.44 0 0 1-.125-.02 2.724 2.724 0 0 1-3.059-2.605v.102a2.722 2.722 0 0 0 3.059 2.71.44.44 0 0 0 .125.02h10.004a4.991 4.991 0 0 0 5.004-5.003v-.102zm0 0" fill-opacity=".235"/><path d="M15.008 9.27c-2 0-3.719 1.16-4.52 2.847a3.716 3.716 0 0 0-.937-.12 3.63 3.63 0 0 0-3.399 2.335 2.733 2.733 0 0 0-1.605-.516 2.72 2.72 0 0 0-2.727 2.727 2.722 2.722 0 0 0 3.059 2.71.44.44 0 0 0 .125.02h10.004a4.991 4.991 0 0 0 5.004-5.003c0-2.77-2.23-5-5.004-5zm0 0" fill="none" stroke-width=".12892443" stroke-linecap="round" stroke="#212121"/><path d="M12.066 1.96c-1.097 0-2.062.552-2.636 1.395a3.115 3.115 0 0 0-1.684-.484c-1.406 0-2.578.899-2.879 2.11a1.81 1.81 0 0 0-.988-.29 1.814 1.814 0 0 0-1.813 1.934A1.812 1.812 0 0 1 3.88 4.918c.367 0 .703.105.988.289.301-1.21 1.473-2.11 2.88-2.11.628 0 1.206.18 1.683.485a3.185 3.185 0 0 1 2.636-1.39 3.17 3.17 0 0 1 3.18 3.066c.004-.035.004-.074.004-.113a3.177 3.177 0 0 0-3.184-3.184zM5.488 7.595c-.011.015-.02.035-.031.054h.082c-.016-.02-.035-.039-.05-.054zm0 0" fill="#fff" fill-opacity=".392"/><path d="M15.14 5.047a3.17 3.17 0 0 1-3.18 3.082H3.774A1.812 1.812 0 0 1 1.957 6.41c-.004.035-.004.067-.004.102 0 1.008.813 1.816 1.82 1.816h8.188a3.177 3.177 0 0 0 3.184-3.183c0-.032-.004-.067-.004-.098zM5.38 7.168c-.008.016-.02.035-.027.055h.082c-.02-.02-.036-.04-.055-.055zm0 0" fill-opacity=".235"/><path d="M11.96 1.96c-1.1 0-2.065.552-2.636 1.395a3.125 3.125 0 0 0-1.683-.484c-1.407 0-2.579.899-2.883 2.11a1.797 1.797 0 0 0-.985-.29c-1.007 0-1.82.813-1.82 1.82 0 1.009.813 1.817 1.82 1.817h8.188a3.177 3.177 0 0 0 3.184-3.183A3.18 3.18 0 0 0 11.96 1.96zM5.38 7.364c.02.02.035.04.055.055h-.082c.007-.016.02-.035.027-.055zm0 0" fill="none" stroke-width=".12891" stroke-linecap="square" stroke-linejoin="round" stroke="#212121"/></svg>
